_inc/systems/logos/saturn.svg

<svg xmlns="http://www.w3.org/2000/svg" viewBox="880.04 77.2 2958.96 316.1"><path d="M2911.1 90.2h-191.9c-15.9 0-28.9 12.9-28.9 28.9 0 15.9 12.9 28.9 28.9 28.9h67.1v207c0 15.9 12.9 28.9 28.9 28.9s28.9-12.9 28.9-28.9V148h67.1c15.9 0 28.9-12.9 28.9-28.9-.1-15.9-13-28.9-29-28.9m-251.2 44c-14.9-30.5-43.9-57-75.6-57s-60.7 26.5-75.6 57c-26 53-50.6 121.7-75.2 210.1a29.25 29.25 0 0 0 28.2 37.1c12.8 0 24.6-8.5 28.2-21.4 5.4-19.5 10.9-37.9 16.3-55.4h156.3c5.4 17.5 10.8 35.9 16.3 55.4a29.14 29.14 0 0 0 36 20.3 29.14 29.14 0 0 0 20.3-36c-24.7-88.4-49.3-157.1-75.2-210.1m-134.6 112.7c11.9-33.2 23.8-62.1 36-86.9 5.2-10.6 13.6-24.2 23-24.2 9.5 0 17.9 13.6 23.1 24.2 12.2 24.9 24.1 53.7 36 86.9zm-589-112.7c-14.9-30.5-43.9-57-75.6-57s-60.7 26.5-75.6 57c-26 53-50.6 121.7-75.2 210.1a29.25 29.25 0 0 0 28.2 37.1c12.8 0 24.6-8.5 28.2-21.4 5.4-19.5 10.9-37.9 16.3-55.4h156.2c5.4 17.5 10.8 35.9 16.3 55.4a29.14 29.14 0 0 0 36 20.3 29.14 29.14 0 0 0 20.3-36c-24.6-88.4-49.2-157.1-75.1-210.1m-134.7 112.6c11.9-33.2 23.8-62.1 36-86.9 5.2-10.6 13.6-24.2 23-24.2 9.5 0 17.9 13.6 23.1 24.2 12.2 24.9 24.1 53.7 36 86.9zm-99.3-2.9c0-.8 0-1.6-.1-2.3 0-.2 0-.4-.1-.6l-.3-2.3c0-.2-.1-.4-.1-.6-.2-.7-.3-1.5-.6-2.2-.1-.2-.1-.4-.2-.6-.2-.7-.5-1.4-.8-2.1-.1-.2-.2-.4-.2-.6-.3-.7-.6-1.3-.9-2l-.3-.6c-.4-.6-.7-1.2-1.1-1.8-.1-.2-.2-.4-.4-.5-.4-.6-.8-1.1-1.3-1.7-.1-.2-.3-.3-.4-.5-.5-.5-.9-1.1-1.4-1.6l-.5-.5c-.5-.5-1-1-1.5-1.4-.2-.1-.4-.3-.5-.4-.5-.4-1.1-.8-1.7-1.2-.2-.1-.4-.3-.6-.4l-1.7-1.1c-.2-.1-.5-.2-.7-.4l-1.8-.9c-.3-.1-.6-.2-.8-.3-.6-.2-1.2-.5-1.8-.6-.3-.1-.6-.2-1-.3-.6-.2-1.2-.3-1.7-.4-.4-.1-.7-.1-1.1-.2l-1.7-.3c-.4 0-.8-.1-1.2-.1s-.7-.1-1.1-.1h-110.2c-15.9 0-28.9 12.9-28.9 28.9 0 15.9 12.9 28.9 28.9 28.9h76.4c-13.2 53.6-55.9 62.5-85.6 62.5-58.9 0-100.1-44.6-100.1-108.4 0-46.6 47.7-89 100.1-89 32.1 0 55.9 7.3 82.1 25.1 13.2 9 31.1 5.5 40.1-7.6 9-13.2 5.5-31.1-7.6-40.1-35.7-24.3-71-35.1-114.5-35.1-40.9 0-80 15.4-110.3 43.5-30.2 27.9-47.5 65.6-47.5 103.2 0 48.4 16.1 90.3 46.6 121 28.9 29.1 68.4 45.1 111.2 45.1 40.2 0 75.5-11.6 102.2-33.5 22.2-18.2 42.8-52.8 45-114.6v-1c-.3 0-.3-.1-.3-.3" style="fill:#fff;fill-rule:nonzero"/><path d="M1368.9 326.1h-135.5v-65.2h94.8c15.9 0 28.9-12.9 28.9-28.9 0-15.9-12.9-28.9-28.9-28.9h-94.8v-55.3h135.5c15.9 0 28.9-12.9 28.9-28.9 0-15.9-12.9-28.9-28.9-28.9h-164.4c-15.9 0-28.9 12.9-28.9 28.9v235.9c0 15.9 12.9 28.9 28.9 28.9h164.4c15.9 0 28.9-12.9 28.9-28.9-.1-15.8-13-28.7-28.9-28.7m1061.3-38c-3.8-46.9-41.7-82.6-87.2-82.6h-94.8c-16 .6-29.5-12.2-30.9-29.3-.9-13.3 5.6-26.6 14-28.5l1.6-.4c37.6-10.7 117.8-7.9 145.9 2.3 15 5.4 31.5-2.4 36.9-17.4s-2.4-31.5-17.4-36.9c-41.4-14.9-133.8-16.7-180.6-3.6-36.1 8.6-61.1 46.6-58 88.8v.3c3.8 46.9 41.7 82.6 87.2 82.6h94.8c16-.6 29.5 12.2 30.9 29.3.9 13.3-5.6 26.6-14 28.5l-1.6.4c-37.6 10.7-117.8 7.9-145.9-2.3-15-5.4-31.5 2.4-36.9 17.4s2.4 31.5 17.4 36.9c22.7 8.2 60.8 12.4 98.3 12.4 30.8 0 61.2-2.9 82.3-8.8 36.1-8.6 61.1-46.6 58-88.8zm-1279.4 0c-3.8-46.9-41.7-82.6-87.2-82.6h-94.8c-16 .6-29.5-12.2-30.9-29.3-.9-13.3 5.6-26.6 14-28.5l1.6-.4c37.6-10.7 117.8-7.9 145.9 2.3 15 5.4 31.5-2.4 36.9-17.4s-2.4-31.5-17.4-36.9c-41.4-14.9-133.8-16.7-180.6-3.6-36.1 8.6-61.1 46.6-58 88.8v.3c3.8 46.9 41.7 82.6 87.2 82.6h94.8c16-.6 29.5 12.2 30.9 29.3.9 13.3-5.6 26.6-14 28.5l-1.6.4c-37.6 10.7-117.8 7.9-145.9-2.3-15-5.4-31.5 2.4-36.9 17.4s2.4 31.5 17.4 36.9c22.7 8.2 60.8 12.4 98.3 12.4 30.8 0 61.2-2.9 82.3-8.8 36.1-8.6 61.1-46.6 58-88.8zM3209.9 77.8c-15.7 0-28.4 12.7-28.4 28.4v175.4c0 27.1-38.6 50.9-82.7 50.9-44 0-82.7-23.8-82.7-50.9V106.2c0-15.7-12.7-28.4-28.4-28.4s-28.4 12.7-28.4 28.4v175.4c0 30.1 16.2 59 44.4 79.1 25.7 18.4 59.5 28.5 95 28.5s69.2-10.1 95-28.5c28.2-20.1 44.4-49 44.4-79.1V106.2c.2-15.7-12.5-28.4-28.2-28.4m257.7 193.5c-1.9-1.8-.8-5.1 1.9-5.3 52.7-3.3 68.4-42.8 71.1-76.4v-.3c1.7-23.8-7.6-49.1-24.8-67.6-13.4-14.4-37.9-31.5-78.9-31.5-30.4 0-64.6.5-93.7 1.4-47.8 1.5-51.2 2.7-55.7 4.4a28.7 28.7 0 0 0-19 27v230.4c0 16.4 13.7 29.6 30.2 28.8 15.5-.7 27.5-14.1 27.5-29.6V150c25.3-1 67.2-2.1 110.7-2.1 16.2 0 28.5 4.4 36.6 13.1 8.2 8.8 9.8 19.2 9.5 24.1-.7 8.9-3.1 35.2-50.3 35.2H3408c-12.7 0-24.5 7.2-29.6 18.8a31.25 31.25 0 0 0 7.3 35.6l108.6 101.8c5.6 5.2 12.7 7.8 19.7 7.8 7.7 0 15.4-3.1 21.1-9.1a28.9 28.9 0 0 0-1.3-40.8zm343-180.6c-15.7 0-28.4 12.7-28.4 28.4v161.7l-162.5-180.7a28.2 28.2 0 0 0-31.3-7.5c-11 4.2-18.2 14.8-18.2 26.5V355c0 15.7 12.7 28.4 28.4 28.4s28.4-12.7 28.4-28.4V193.3L3789.5 374a28.38 28.38 0 0 0 49.5-19V119.1c0-15.7-12.7-28.4-28.4-28.4" style="fill:#fff;fill-rule:nonzero"/></svg>

<?xml version="1.0" encoding="utf-8"?>
<svg viewBox="880.0406 77.2 2958.9594 316.1" width="2958.9594" height="316.1" xmlns="http://www.w3.org/2000/svg">
  <path d="M2911.1,90.2L2719.2,90.2C2703.3,90.2 2690.3,103.1 2690.3,119.1C2690.3,135 2703.2,148 2719.2,148L2786.3,148L2786.3,355C2786.3,370.9 2799.2,383.9 2815.2,383.9C2831.2,383.9 2844.1,371 2844.1,355L2844.1,148L2911.2,148C2927.1,148 2940.1,135.1 2940.1,119.1C2940,103.2 2927.1,90.2 2911.1,90.2Z" style="fill:white;fill-rule:nonzero;"/>
  <path d="M2659.9,134.2C2645,103.7 2616,77.2 2584.3,77.2C2552.6,77.2 2523.6,103.7 2508.7,134.2C2482.7,187.2 2458.1,255.9 2433.5,344.3C2429.2,359.9 2438.3,376 2453.8,380.3C2456.4,381 2459.1,381.4 2461.7,381.4C2474.5,381.4 2486.3,372.9 2489.9,360C2495.3,340.5 2500.8,322.1 2506.2,304.6L2662.5,304.6C2667.9,322.1 2673.3,340.5 2678.8,360C2683.1,375.6 2699.3,384.7 2714.8,380.3C2730.4,376 2739.5,359.8 2735.1,344.3C2710.4,255.9 2685.8,187.2 2659.9,134.2ZM2525.3,246.9C2537.2,213.7 2549.1,184.8 2561.3,160C2566.5,149.4 2574.9,135.8 2584.3,135.8C2593.8,135.8 2602.2,149.4 2607.4,160C2619.6,184.9 2631.5,213.7 2643.4,246.9L2525.3,246.9Z" style="fill:white;fill-rule:nonzero;"/>
  <path d="M1936.3,134.2C1921.4,103.7 1892.4,77.2 1860.7,77.2C1829,77.2 1800,103.7 1785.1,134.2C1759.1,187.2 1734.5,255.9 1709.9,344.3C1705.6,359.9 1714.7,376 1730.2,380.3C1732.8,381 1735.5,381.4 1738.1,381.4C1750.9,381.4 1762.7,372.9 1766.3,360C1771.7,340.5 1777.2,322.1 1782.6,304.6L1938.8,304.6C1944.2,322.1 1949.6,340.5 1955.1,360C1959.4,375.6 1975.6,384.7 1991.1,380.3C2006.7,376 2015.8,359.8 2011.4,344.3C1986.8,255.9 1962.2,187.2 1936.3,134.2ZM1801.6,246.8C1813.5,213.6 1825.4,184.7 1837.6,159.9C1842.8,149.3 1851.2,135.7 1860.6,135.7C1870.1,135.7 1878.5,149.3 1883.7,159.9C1895.9,184.8 1907.8,213.6 1919.7,246.8L1801.6,246.8Z" style="fill:white;fill-rule:nonzero;"/>
  <path d="M1702.3,243.9C1702.3,243.1 1702.3,242.3 1702.2,241.6C1702.2,241.4 1702.2,241.2 1702.1,241C1702,240.2 1701.9,239.5 1701.8,238.7C1701.8,238.5 1701.7,238.3 1701.7,238.1C1701.5,237.4 1701.4,236.6 1701.1,235.9C1701,235.7 1701,235.5 1700.9,235.3C1700.7,234.6 1700.4,233.9 1700.1,233.2C1700,233 1699.9,232.8 1699.9,232.6C1699.6,231.9 1699.3,231.3 1699,230.6C1698.9,230.4 1698.8,230.2 1698.7,230C1698.3,229.4 1698,228.8 1697.6,228.2C1697.5,228 1697.4,227.8 1697.2,227.7C1696.8,227.1 1696.4,226.6 1695.9,226C1695.8,225.8 1695.6,225.7 1695.5,225.5C1695,225 1694.6,224.4 1694.1,223.9C1693.9,223.7 1693.8,223.6 1693.6,223.4C1693.1,222.9 1692.6,222.4 1692.1,222C1691.9,221.9 1691.7,221.7 1691.6,221.6C1691.1,221.2 1690.5,220.8 1689.9,220.4C1689.7,220.3 1689.5,220.1 1689.3,220C1688.7,219.6 1688.2,219.3 1687.6,218.9C1687.4,218.8 1687.1,218.7 1686.9,218.5C1686.3,218.2 1685.7,217.9 1685.1,217.6C1684.8,217.5 1684.5,217.4 1684.3,217.3C1683.7,217.1 1683.1,216.8 1682.5,216.7C1682.2,216.6 1681.9,216.5 1681.5,216.4C1680.9,216.2 1680.3,216.1 1679.8,216C1679.4,215.9 1679.1,215.9 1678.7,215.8C1678.1,215.7 1677.6,215.6 1677,215.5C1676.6,215.5 1676.2,215.4 1675.8,215.4C1675.4,215.4 1675.1,215.3 1674.7,215.3L1564.5,215.3C1548.6,215.3 1535.6,228.2 1535.6,244.2C1535.6,260.1 1548.5,273.1 1564.5,273.1L1640.9,273.1C1627.7,326.7 1585,335.6 1555.3,335.6C1496.4,335.6 1455.2,291 1455.2,227.2C1455.2,180.6 1502.9,138.2 1555.3,138.2C1587.4,138.2 1611.2,145.5 1637.4,163.3C1650.6,172.3 1668.5,168.8 1677.5,155.7C1686.5,142.5 1683,124.6 1669.9,115.6C1634.2,91.3 1598.9,80.5 1555.4,80.5C1514.5,80.5 1475.4,95.9 1445.1,124C1414.9,151.9 1397.6,189.6 1397.6,227.2C1397.6,275.6 1413.7,317.5 1444.2,348.2C1473.1,377.3 1512.6,393.3 1555.4,393.3C1595.6,393.3 1630.9,381.7 1657.6,359.8C1679.8,341.6 1700.4,307 1702.6,245.2L1702.6,244.2C1702.3,244.2 1702.3,244.1 1702.3,243.9Z" style="fill:white;fill-rule:nonzero;"/>
  <path d="M1368.9,326.1L1233.4,326.1L1233.4,260.9L1328.2,260.9C1344.1,260.9 1357.1,248 1357.1,232C1357.1,216.1 1344.2,203.1 1328.2,203.1L1233.4,203.1L1233.4,147.8L1368.9,147.8C1384.8,147.8 1397.8,134.9 1397.8,118.9C1397.8,103 1384.9,90 1368.9,90L1204.5,90C1188.6,90 1175.6,102.9 1175.6,118.9L1175.6,354.8C1175.6,370.7 1188.5,383.7 1204.5,383.7L1368.9,383.7C1384.8,383.7 1397.8,370.8 1397.8,354.8C1397.7,339 1384.8,326.1 1368.9,326.1Z" style="fill:white;fill-rule:nonzero;"/>
  <path d="M2430.2,288.1C2426.4,241.2 2388.5,205.5 2343,205.5L2248.2,205.5C2232.2,206.1 2218.7,193.3 2217.3,176.2C2216.4,162.9 2222.9,149.6 2231.3,147.7L2232.9,147.3C2270.5,136.6 2350.7,139.4 2378.8,149.6C2393.8,155 2410.3,147.2 2415.7,132.2C2421.1,117.2 2413.3,100.7 2398.3,95.3C2356.9,80.4 2264.5,78.6 2217.7,91.7C2181.6,100.3 2156.6,138.3 2159.7,180.5L2159.7,180.8C2163.5,227.7 2201.4,263.4 2246.9,263.4L2341.7,263.4C2357.7,262.8 2371.2,275.6 2372.6,292.7C2373.5,306 2367,319.3 2358.6,321.2L2357,321.6C2319.4,332.3 2239.2,329.5 2211.1,319.3C2196.1,313.9 2179.6,321.7 2174.2,336.7C2168.8,351.7 2176.6,368.2 2191.6,373.6C2214.3,381.8 2252.4,386 2289.9,386C2320.7,386 2351.1,383.1 2372.2,377.2C2408.3,368.6 2433.3,330.6 2430.2,288.4L2430.2,288.1Z" style="fill:white;fill-rule:nonzero;"/>
  <path d="M1150.8,288.1C1147,241.2 1109.1,205.5 1063.6,205.5L968.8,205.5C952.8,206.1 939.3,193.3 937.9,176.2C937,162.9 943.5,149.6 951.9,147.7L953.5,147.3C991.1,136.6 1071.3,139.4 1099.4,149.6C1114.4,155 1130.9,147.2 1136.3,132.2C1141.7,117.2 1133.9,100.7 1118.9,95.3C1077.5,80.4 985.1,78.6 938.3,91.7C902.2,100.3 877.2,138.3 880.3,180.5L880.3,180.8C884.1,227.7 922,263.4 967.5,263.4L1062.3,263.4C1078.3,262.8 1091.8,275.6 1093.2,292.7C1094.1,306 1087.6,319.3 1079.2,321.2L1077.6,321.6C1040,332.3 959.8,329.5 931.7,319.3C916.7,313.9 900.2,321.7 894.8,336.7C889.4,351.7 897.2,368.2 912.2,373.6C934.9,381.8 973,386 1010.5,386C1041.3,386 1071.7,383.1 1092.8,377.2C1128.9,368.6 1153.9,330.6 1150.8,288.4L1150.8,288.1Z" style="fill:white;fill-rule:nonzero;"/>
  <path d="M3209.9,77.8C3194.2,77.8 3181.5,90.5 3181.5,106.2L3181.5,281.6C3181.5,308.7 3142.9,332.5 3098.8,332.5C3054.8,332.5 3016.1,308.7 3016.1,281.6L3016.1,106.2C3016.1,90.5 3003.4,77.8 2987.7,77.8C2972,77.8 2959.3,90.5 2959.3,106.2L2959.3,281.6C2959.3,311.7 2975.5,340.6 3003.7,360.7C3029.4,379.1 3063.2,389.2 3098.7,389.2C3134.2,389.2 3167.9,379.1 3193.7,360.7C3221.9,340.6 3238.1,311.7 3238.1,281.6L3238.1,106.2C3238.3,90.5 3225.6,77.8 3209.9,77.8Z" style="fill:white;fill-rule:nonzero;"/>
  <path d="M3467.6,271.3C3465.7,269.5 3466.8,266.2 3469.5,266C3522.2,262.7 3537.9,223.2 3540.6,189.6L3540.6,189.3C3542.3,165.5 3533,140.2 3515.8,121.7C3502.4,107.3 3477.9,90.2 3436.9,90.2C3406.5,90.2 3372.3,90.7 3343.2,91.6C3295.4,93.1 3292,94.3 3287.5,96C3276.1,100.1 3268.5,110.9 3268.5,123L3268.5,353.4C3268.5,369.8 3282.2,383 3298.7,382.2C3314.2,381.5 3326.2,368.1 3326.2,352.6L3326.2,150C3351.5,149 3393.4,147.9 3436.9,147.9C3453.1,147.9 3465.4,152.3 3473.5,161C3481.7,169.8 3483.3,180.2 3483,185.1C3482.3,194 3479.9,220.3 3432.7,220.3L3408,220.3C3395.3,220.3 3383.5,227.5 3378.4,239.1C3373,251.4 3375.9,265.6 3385.7,274.7L3494.3,376.5C3499.9,381.7 3507,384.3 3514,384.3C3521.7,384.3 3529.4,381.2 3535.1,375.2C3546,363.6 3545.4,345.3 3533.8,334.4L3467.6,271.3Z" style="fill:white;fill-rule:nonzero;"/>
  <path d="M3810.6,90.7C3794.9,90.7 3782.2,103.4 3782.2,119.1L3782.2,280.8L3619.7,100.1C3611.8,91.3 3599.4,88.3 3588.4,92.6C3577.4,96.8 3570.2,107.4 3570.2,119.1L3570.2,355C3570.2,370.7 3582.9,383.4 3598.6,383.4C3614.3,383.4 3627,370.7 3627,355L3627,193.3L3789.5,374C3795,380.1 3802.7,383.4 3810.6,383.4C3814,383.4 3817.5,382.8 3820.8,381.5C3831.8,377.3 3839,366.7 3839,355L3839,119.1C3839,103.4 3826.3,90.7 3810.6,90.7Z" style="fill:white;fill-rule:nonzero;"/>
</svg>
